X:338
%%etbk:tnset id:101,pos:4,rep:3x,ant:
%%etbk:tnset id:184,pos:2,rep:2x,ant:
%%etbk:wsite http://www.thesession.org/tunes/display/107
%%etbk:pldat 2016-06-23T19:24,2016-06-21T15:46,2016-05-05T14:25,2016-05-03T17:13,2016-03-11T16:41,2016-03-09T16:16,2016-03-08T16:25,2016-02-27T15:26,2015-11-04T16:48,2015-10-28T16:23,2015-10-26T18:03,2015-10-21T16:51,2015-10-07T16:00,2015-06-26T17:30,2015-05-26T18:23,2015-03-13T18:51,2015-03-10T17:08,2015-03-03T18:45,2015-02-10T17:31,2014-11-06T18:42,2014-11-04T17:13,2014-11-02T15:24,2014-10-29T15:59,2014-10-24T18:30,2014-08-20T19:09,2014-06-24T18:53,2014-03-06T18:28,2014-03-03T19:03,2014-02-24T18:19,2014-01-22T17:01,2014-01-21T17:50,2014-01-19T14:07,2014-01-18T14:41,2014-01-14T18:36,2014-01-08T15:28,2013-12-29T13:33,2013-10-30T17:11,2013-10-29T16:27,2013-10-27T14:58,2013-10-16T16:33,2013-10-13T15:43,2013-09-12T18:19,2013-05-21T17:19,2013-05-20T15:39
T: Atholl Highlanders, The
Z: Piano Box Version by Martin Fleischmann
H: Created 2013-02-19 /  Last Modified 2013-02-19
M: 6/8
L: 1/8
R: jig
K: Amaj
|: "A"!5!e2e !5!e!3!c!1!A| !5!ecA !2!Bcd | !5!e2e ecA | "E"!2!Bcd cBA |
"A"!5!e2e ecA | !5!ecA !2!Bc!4!d | !2!e!5!ae "E"!3!fe!1!d | !3!c!4!d!2!B "A"!1!A3:|
|: "A"!1!A!2!c!4!e Ace | "D"!1!B!2!d!4!f Bdf | "A"!1!A!2!c!4!e Ac!4!e | "E"!2!Bcd cBA |
"A"!1!A!2!c!4!e Ace | "D"!1!B!2!d!4!f Bd!4!f | "A"!2!e!5!ae "E"!3!fe!1!d | !3!c!4!d!2!B "A"!1!A3:|
|: "A"!5!a2!3!e !3!e!1!d!2!c | !5!a2!3!e !3!e!1!d!2!c | !5!a2!3!e !3!e!1!d!3!c | "E"!2!B!3!c!1!d !2!efg |
"A"!5!a2!3!e !3!e!1!d!2!c | !5!a2!3!e !3!e!1!d!2!c | !2!e!5!ae "E"!3!fe!1!d | !3!c!4!d!2!B "A"!1!A3:|
|: "A"!3!c2c c!1!Ac | "D"!4!d!1!Ad ded | "A"!3!ccc cAc | "E"!2!B2B {c}BAB |
"A"!3!cAc cAc | "D"!4!d2d dc!4!d | "A"!2!e!5!ae !3!fe!1!d | "E"!3!c!4!d!2!B "A"!1!A3:|


